brandFactory_export/1.Light/Coche_1Light.svg

<?xml version="1.0" encoding="UTF-8"?>
<svg width="24px" height="24px" viewBox="0 0 24 24" version="1.1" xmlns="http://www.w3.org/2000/svg" xmlns:xlink="http://www.w3.org/1999/xlink">
    <title>1.Light/Coche_1Light</title>
    <g id="Symbols" stroke="none" stroke-width="1" fill="none" fill-rule="evenodd">
        <g id="1.Light/Coche_1Light" fill="#5CB615" fill-rule="nonzero">
            <path d="M22.2554622,15.3932773 L19.102521,15.3932773 C18.9142857,13.887395 17.8521008,12.9663866 16.2151261,12.9663866 C14.5815126,12.9663866 13.5159664,13.887395 13.3277311,15.3932773 L8.75630252,15.3932773 C8.57142857,13.8806723 7.50588235,12.9563025 5.86890756,12.9563025 C4.23193277,12.9563025 3.16638655,13.8806723 2.98151261,15.3932773 L1.09915966,15.3932773 C0.991596639,14.6302521 0.961344538,13.8571429 1.01176471,13.087395 C1.00168067,11.9781513 1.79495798,10.0521008 3.32773109,8.51932773 C4.47394958,7.3697479 6.46386555,5.99831933 9.44537815,5.99831933 C15.0588235,5.99831933 17.3445378,9.65546218 17.4386555,9.81008403 C17.5226891,9.94789916 17.6705882,10.0386555 17.8319328,10.0487395 C17.8621849,10.0521008 20.6386555,10.2571429 22.0235294,12.512605 C23.0722689,14.2235294 22.5042017,15.1176471 22.2554622,15.3932773 M16.2151261,17.810084 C14.9478992,17.810084 14.2789916,17.1411765 14.2789916,15.8806723 C14.2789916,14.6201681 14.9478992,13.9512605 16.2151261,13.9512605 C17.4823529,13.9512605 18.1512605,14.6201681 18.1512605,15.8806723 C18.1512605,17.1411765 17.4823529,17.810084 16.2151261,17.810084 M5.86890756,17.8 C4.60168067,17.8 3.92941176,17.1344538 3.92941176,15.8705882 C3.92941176,14.610084 4.60168067,13.9411765 5.86890756,13.9411765 C7.13613445,13.9411765 7.80504202,14.610084 7.80504202,15.8705882 C7.80504202,17.1344538 7.13613445,17.8 5.86890756,17.8 M22.8705882,11.9983193 C21.4621849,9.70588235 18.9579832,9.19495798 18.1512605,9.0907563 C17.5361345,8.21680672 14.9142857,5.01344538 9.4487395,5.01344538 C6.12436975,5.01344538 3.90252101,6.5394958 2.62521008,7.82352941 C0.823529412,9.62857143 0.0134453782,11.8235294 0.0235294118,13.0638655 C-0.0773109244,14.805042 0.194957983,15.9546218 0.208403361,16.005042 C0.262184874,16.2268908 0.460504202,16.3815126 0.68907563,16.3815126 L2.98151261,16.3815126 C3.17983193,17.8773109 4.24201681,18.7882353 5.86890756,18.7882353 C7.49579832,18.7882353 8.55798319,17.8773109 8.75630252,16.3815126 L13.3310924,16.3815126 C13.5226891,17.8840336 14.5882353,18.7983193 16.2184874,18.7983193 C17.8487395,18.7983193 18.9109244,17.8840336 19.1058824,16.3815126 L22.4504202,16.3815126 C22.5546218,16.3815126 22.6554622,16.3478992 22.7394958,16.287395 C22.7563025,16.2705882 24.6319328,14.8689076 22.8705882,11.9983193" id="Coche_1Light"></path>
        </g>
    </g>
</svg>

<svg width="24" height="24" viewBox="0 0 24 24" xmlns="http://www.w3.org/2000/svg"><path d="M22.255 15.393h-3.152c-.189-1.506-1.25-2.427-2.888-2.427-1.633 0-2.699.921-2.887 2.427H8.756c-.185-1.512-1.25-2.437-2.887-2.437s-2.703.925-2.887 2.437H1.099a11.254 11.254 0 01-.087-2.306c-.01-1.109.783-3.035 2.316-4.568C4.474 7.37 6.464 6 9.445 6c5.614 0 7.9 3.656 7.994 3.811a.5.5 0 00.393.239c.03.003 2.807.208 4.192 2.464 1.048 1.71.48 2.605.231 2.88m-6.04 2.417c-1.267 0-1.936-.669-1.936-1.93 0-1.26.669-1.929 1.936-1.929s1.936.67 1.936 1.93c0 1.26-.669 1.93-1.936 1.93M5.87 17.8c-1.267 0-1.94-.666-1.94-1.93 0-1.26.673-1.929 1.94-1.929s1.936.67 1.936 1.93c0 1.263-.669 1.929-1.936 1.929m17.002-5.802c-1.409-2.292-3.913-2.803-4.72-2.907-.615-.874-3.237-4.078-8.702-4.078-3.325 0-5.546 1.526-6.824 2.81-1.801 1.806-2.612 4-2.601 5.24-.101 1.742.171 2.892.184 2.942a.493.493 0 00.481.377h2.293c.198 1.495 1.26 2.406 2.887 2.406s2.689-.91 2.887-2.406h4.575c.192 1.502 1.257 2.416 2.887 2.416 1.63 0 2.693-.914 2.888-2.416h3.344a.495.495 0 00.29-.095c.016-.016 1.892-1.418.13-4.289" fill="#5CB615" fill-rule="nonzero"/></svg>
